X: 0
T: Salmon Tails Up The Water
C: James Allen
M: 2/4
L: 1/8
K: Gmaj
|:"G"GE DE|G2 G>A |"C"Bd AB/A/|G"C"E "D"D2|
"G"GE DE |"Em"G2 G>A |"C"Bd "D"AB/A/ |"G"G2 G2 :|
|:"G"Bd d2 |"C"ce e>g |"G/B"dB AB/A/ |"C"GE "D"D2 |
[1"G"Bd d2 |"C"ce e>f |"D"gf ed |ef "G"g2 :|
[2"G"GE "D/F#"DE |"Em"G2 "D"G>A |"C"Bd "D"AB/A/ |"G"G2 G2 |]